; generated by PrusaSlicer 2.2.0+ on 2021-02-24 at 16:45:37 UTC

; 

; external perimeters extrusion width = 0.45mm
; perimeters extrusion width = 0.45mm
; infill extrusion width = 0.45mm
; solid infill extrusion width = 0.45mm
; top infill extrusion width = 0.40mm
; first layer extrusion width = 0.42mm

M73 P0 R35
M73 Q0 S35
M201 X1000 Y1000 Z200 E5000 ; sets maximum accelerations, mm/sec^2
M203 X200 Y200 Z12 E120 ; sets maximum feedrates, mm/sec
M204 P1250 R1250 T1250 ; sets acceleration (P, T) and retract acceleration (R), mm/sec^2
M205 X8.00 Y8.00 Z0.40 E4.50 ; sets the jerk limits, mm/sec
M205 S0 T0 ; sets the minimum extruding and travel feed rate, mm/sec
M107
M862.3 P "MK3S" ; printer model check
M862.1 P0.4 ; nozzle diameter check
M115 U3.9.3 ; tell printer latest fw version
G90 ; use absolute coordinates
M83 ; extruder relative mode
M104 S215 ; set extruder temp
M140 S60 ; set bed temp
M190 S60 ; wait for bed temp
M109 S215 ; wait for extruder temp
G28 W ; home all without mesh bed level
G80 ; mesh bed leveling
G1 Y-3.0 F1000.0 ; go outside print area
G92 E0.0
G1 X60.0 E9.0 F1000.0 ; intro line
M73 Q0 S35
M73 P0 R35
G1 X100.0 E12.5 F1000.0 ; intro line
G92 E0.0
M221 S95

; Don't change E values below. Excessive value can damage the printer.
M907 E430 ; set extruder motor current
G21 ; set units to millimeters
G90 ; use absolute coordinates
M83 ; use relative distances for extrusion
M900 K0.05 ; Filament gcode LA 1.5
M900 K30 ; Filament gcode LA 1.0
;BEFORE_LAYER_CHANGE
G92 E0.0
;0.2


G1 E-0.80000 F2100.00000
G1 Z0.400 F10800.000
;AFTER_LAYER_CHANGE
;0.2
G1 X109.067 Y103.993
G1 Z0.200
G1 E0.80000 F2100.00000
M204 S1000
G1 F1200.000
G2 X109.608 Y103.130 E0.03195
G2 X123.053 Y89.683 E0.59621
G2 X123.474 Y89.338 E0.01707
G2 X123.951 Y89.084 E0.01694
G2 X124.468 Y88.928 E0.01694
G2 X125.006 Y88.876 E0.01694
G2 X126.007 Y89.067 E0.03195
G2 X126.870 Y89.608 E0.03195
G2 X140.317 Y103.053 E0.59621
G2 X140.660 Y103.470 E0.01694
G2 X140.915 Y103.947 E0.01694
G2 X141.071 Y104.464 E0.01694
G2 X141.124 Y105.002 E0.01694
G2 X140.933 Y106.007 E0.03208
G2 X140.392 Y106.870 E0.03195
G2 X126.947 Y120.317 E0.59621
G2 X126.530 Y120.660 E0.01694
G2 X126.053 Y120.915 E0.01694
G2 X125.536 Y121.071 E0.01694
G2 X124.998 Y121.124 E0.01694
G2 X123.993 Y120.933 E0.03208
G2 X123.130 Y120.392 E0.03195
G2 X109.683 Y106.947 E0.59621
G2 X109.340 Y106.530 E0.01694
G2 X109.085 Y106.053 E0.01694
G2 X108.929 Y105.536 E0.01694
G2 X108.876 Y104.998 E0.01694
G2 X109.055 Y104.052 E0.03020
G1 X109.419 Y104.126 F10800.000
G1 F1200.000
G2 X109.893 Y103.377 E0.02778
G2 X123.319 Y89.949 E0.59538
G2 X124.090 Y89.434 E0.02907
G2 X125.003 Y89.253 E0.02919
G2 X125.874 Y89.419 E0.02778
G2 X126.623 Y89.893 E0.02778
G2 X140.051 Y103.319 E0.59538
G2 X140.566 Y104.090 E0.02907
G2 X140.747 Y104.999 E0.02907
G2 X140.566 Y105.909 E0.02907
G2 X140.051 Y106.681 E0.02911
G2 X126.623 Y120.106 E0.59535
G2 X125.871 Y120.582 E0.02790
G2 X125.001 Y120.747 E0.02778
G2 X124.091 Y120.566 E0.02907
G2 X123.319 Y120.051 E0.02911
G2 X109.894 Y106.623 E0.59535
G2 X109.418 Y105.871 E0.02790
G2 X109.253 Y105.001 E0.02778
G2 X109.408 Y104.185 E0.02602
; printing object cube-test.stl id:0 copy 0
G1 F8640.000
G2 X109.893 Y103.377 E-0.21755
G2 X111.554 Y101.716 E-0.54245
G1 E-0.04000 F2100.00000
G1 Z0.600 F10800.000
G1 X112.743 Y105.000
G1 Z0.200
G1 E0.80000 F2100.00000
G1 F1200.000
G2 X125.000 Y92.743 E0.54348
G2 X137.257 Y105.000 E0.54348
G2 X125.000 Y117.257 E0.54348
G2 X112.786 Y105.042 E0.54160
G1 X112.210 Y105.000 F10800.000
G1 F1200.000
G2 X125.000 Y92.210 E0.56713
G2 X137.790 Y105.000 E0.56713
G2 X125.000 Y117.790 E0.56713
G2 X112.252 Y105.042 E0.56525
G1 X112.556 Y104.800 F10800.000
G1 F8640.000
G2 X114.572 Y102.707 E-0.76000
G1 E-0.04000 F2100.00000
G1 Z0.600 F10800.000
G1 X136.975 Y105.121
G1 Z0.200
G1 E0.80000 F2100.00000
G1 F1200.000
G2 X124.999 Y93.145 E0.53660
G2 X124.729 Y93.414 E0.01207
G2 X136.586 Y105.271 E0.53122
G2 X136.317 Y105.540 E0.01207
G2 X124.460 Y93.683 E0.53122
G2 X124.190 Y93.953 E0.01207
G2 X136.047 Y105.810 E0.53122
G2 X135.778 Y106.079 E0.01207
G2 X123.921 Y94.222 E0.53122
G2 X123.652 Y94.492 E0.01207
G2 X135.508 Y106.348 E0.53122
G2 X135.239 Y106.618 E0.01207
G2 X123.382 Y94.761 E0.53122
G2 X123.113 Y95.030 E0.01207
G2 X134.970 Y106.887 E0.53122
G2 X134.700 Y107.157 E0.01207
G2 X122.843 Y95.300 E0.53122
G2 X122.574 Y95.569 E0.01207
G2 X134.431 Y107.426 E0.53122
G2 X134.161 Y107.696 E0.01207
G2 X122.304 Y95.839 E0.53122
G2 X122.035 Y96.108 E0.01207
G2 X133.892 Y107.965 E0.53122
G2 X133.622 Y108.234 E0.01207
G2 X121.766 Y96.378 E0.53122
G2 X121.496 Y96.647 E0.01207
G2 X133.353 Y108.504 E0.53122
G2 X133.084 Y108.773 E0.01207
G2 X121.227 Y96.916 E0.53122
G2 X120.957 Y97.186 E0.01207
G2 X132.814 Y109.043 E0.53122
G2 X132.545 Y109.312 E0.01207
G2 X120.688 Y97.455 E0.53122
G2 X120.419 Y97.725 E0.01207
G2 X132.275 Y109.581 E0.53122
G2 X132.006 Y109.851 E0.01207
G2 X120.149 Y97.994 E0.53122
G2 X119.880 Y98.263 E0.01207
G2 X131.737 Y110.120 E0.53122
G2 X131.467 Y110.390 E0.01207
G2 X119.610 Y98.533 E0.53122
G2 X119.341 Y98.802 E0.01207
G2 X131.198 Y110.659 E0.53122
G2 X130.928 Y110.928 E0.01207
G2 X119.072 Y99.072 E0.53122
G2 X118.802 Y99.341 E0.01207
G2 X130.659 Y111.198 E0.53122
G2 X130.390 Y111.467 E0.01207
G2 X118.533 Y99.610 E0.53122
G2 X118.263 Y99.880 E0.01207
G2 X130.120 Y111.737 E0.53122
G2 X129.851 Y112.006 E0.01207
G2 X117.994 Y100.149 E0.53122
G2 X117.725 Y100.419 E0.01207
G2 X129.581 Y112.275 E0.53122
G2 X129.312 Y112.545 E0.01207
G2 X117.455 Y100.688 E0.53122
G2 X117.186 Y100.957 E0.01207
G2 X129.043 Y112.814 E0.53122
G2 X128.773 Y113.084 E0.01207
G2 X116.916 Y101.227 E0.53122
G2 X116.647 Y101.496 E0.01207
G2 X128.504 Y113.353 E0.53122
G2 X128.234 Y113.623 E0.01207
G2 X116.377 Y101.766 E0.53122
G2 X116.108 Y102.035 E0.01207
G2 X127.965 Y113.892 E0.53122
G2 X127.695 Y114.161 E0.01207
G2 X115.839 Y102.305 E0.53122
G2 X115.569 Y102.574 E0.01207
G2 X127.426 Y114.431 E0.53122
G2 X127.157 Y114.700 E0.01207
G2 X115.300 Y102.843 E0.53122
G2 X115.030 Y103.113 E0.01207
G2 X126.887 Y114.970 E0.53122
G2 X126.618 Y115.239 E0.01207
G2 X114.761 Y103.382 E0.53122
G2 X114.492 Y103.652 E0.01207
G2 X126.348 Y115.508 E0.53122
G2 X126.079 Y115.778 E0.01207
G2 X114.222 Y103.921 E0.53122
G2 X113.953 Y104.190 E0.01207
G2 X125.810 Y116.047 E0.53122
G2 X125.540 Y116.317 E0.01207
G2 X113.683 Y104.460 E0.53122
G2 X113.414 Y104.729 E0.01207
G2 X125.271 Y116.586 E0.53122
G2 X125.001 Y116.855 E0.01207
G2 X113.025 Y104.879 E0.53660
M73 Q3 S34
; stop printing object cube-test.stl id:0 copy 0
M106 S255
;BEFORE_LAYER_CHANGE
G92 E0.0
;0.35


G1 F8640.000
G2 X115.352 Y107.206 E-0.76000
G1 E-0.04000 F2100.00000
G1 Z0.600 F10800.000
;AFTER_LAYER_CHANGE
;0.35
G1 X109.067 Y103.993
G1 Z0.350
G1 E0.80000 F2100.00000
M73 P3 R34
G1 F3000.000
G2 X109.608 Y103.130 E0.02465
G2 X123.053 Y89.683 E0.45988
G2 X123.474 Y89.338 E0.01317
G2 X123.951 Y89.084 E0.01307
G2 X124.468 Y88.928 E0.01307
G2 X125.006 Y88.876 E0.01307
G2 X126.007 Y89.067 E0.02465
G2 X126.870 Y89.608 E0.02465
G2 X140.317 Y103.053 E0.45988
G2 X140.660 Y103.470 E0.01307
G2 X140.915 Y103.947 E0.01307
G2 X141.071 Y104.464 E0.01307
G2 X141.124 Y105.002 E0.01307
G2 X140.933 Y106.007 E0.02474
G2 X140.392 Y106.870 E0.02465
G2 X126.947 Y120.317 E0.45988
G2 X126.530 Y120.660 E0.01307
G2 X126.053 Y120.915 E0.01307
G2 X125.536 Y121.071 E0.01307
G2 X124.998 Y121.124 E0.01307
G2 X123.993 Y120.933 E0.02474
G2 X123.130 Y120.392 E0.02465
G2 X109.683 Y106.947 E0.45988
G2 X109.340 Y106.530 E0.01307
G2 X109.085 Y106.053 E0.01307
G2 X108.929 Y105.536 E0.01307
G2 X108.876 Y104.998 E0.01307
G2 X109.055 Y104.052 E0.02329
G1 X109.419 Y104.126 F10800.000
G1 F3000.000
G2 X109.893 Y103.377 E0.02143
G2 X123.319 Y89.949 E0.45924
G2 X124.090 Y89.434 E0.02242
G2 X125.003 Y89.253 E0.02252
G2 X125.874 Y89.419 E0.02143
G2 X126.623 Y89.893 E0.02143
G2 X140.051 Y103.319 E0.45924
G2 X140.566 Y104.090 E0.02242
G2 X140.747 Y104.999 E0.02242
G2 X140.566 Y105.909 E0.02242
G2 X140.051 Y106.681 E0.02245
G2 X126.623 Y120.106 E0.45922
G2 X125.871 Y120.582 E0.02152
G2 X125.001 Y120.747 E0.02143
G2 X124.091 Y120.566 E0.02242
G2 X123.319 Y120.051 E0.02245
G2 X109.894 Y106.623 E0.45922
G2 X109.418 Y105.871 E0.02152
G2 X109.253 Y105.001 E0.02143
G2 X109.408 Y104.185 E0.02007
; printing object cube-test.stl id:0 copy 0
G1 F8640.000
G2 X109.893 Y103.377 E-0.21755
G2 X111.554 Y101.716 E-0.54245
G1 E-0.04000 F2100.00000
G1 Z0.750 F10800.000
G1 X112.539 Y105.000
G1 Z0.350
G1 E0.80000 F2100.00000
M204 S800
G1 F2700.000
G2 X125.000 Y92.539 E0.45916
G2 X137.461 Y105.000 E0.45916
G2 X125.000 Y117.461 E0.45916
G2 X112.582 Y105.042 E0.45760
M204 S1000
G1 X111.948 Y105.000 F10800.000
M204 S800
G1 F1500.000
G2 X125.000 Y91.948 E0.48093
G2 X138.052 Y105.000 E0.48093
G2 X125.000 Y118.052 E0.48093
G2 X111.991 Y105.042 E0.47937
M204 S1000
G1 X112.295 Y104.800 F10800.000
G1 F8640.000
G2 X114.311 Y102.707 E-0.76000
G1 E-0.04000 F2100.00000
G1 Z0.750 F10800.000
G1 X125.135 Y92.852
G1 Z0.350
G1 E0.80000 F2100.00000
G1 F4800.000
G2 X112.985 Y105.002 E0.45513
G2 X113.285 Y105.303 E0.01125
G2 X125.303 Y93.285 E0.45015
G2 X125.603 Y93.585 E0.01125
G2 X113.585 Y105.603 E0.45015
G2 X113.886 Y105.903 E0.01125
G2 X125.903 Y93.886 E0.45015
G2 X126.204 Y94.186 E0.01125
G2 X114.186 Y106.204 E0.45015
G2 X114.486 Y106.504 E0.01125
G2 X126.504 Y94.486 E0.45015
G2 X126.804 Y94.787 E0.01125
G2 X114.787 Y106.804 E0.45015
G2 X115.087 Y107.105 E0.01125
G2 X127.105 Y95.087 E0.45015
G2 X127.405 Y95.387 E0.01125
G2 X115.387 Y107.405 E0.45015
G2 X115.688 Y107.705 E0.01125
G2 X127.705 Y95.688 E0.45015
G2 X128.006 Y95.988 E0.01125
G2 X115.988 Y108.006 E0.45015
G2 X116.288 Y108.306 E0.01125
G2 X128.306 Y96.288 E0.45015
G2 X128.606 Y96.589 E0.01125
G2 X116.589 Y108.606 E0.45015
G2 X116.889 Y108.907 E0.01125
G2 X128.907 Y96.889 E0.45015
G2 X129.207 Y97.189 E0.01125
G2 X117.189 Y109.207 E0.45015
G2 X117.490 Y109.507 E0.01125
G2 X129.507 Y97.490 E0.45015
G2 X129.808 Y97.790 E0.01125
G2 X117.790 Y109.808 E0.45015
G2 X118.090 Y110.108 E0.01125
G2 X130.108 Y98.090 E0.45015
G2 X130.408 Y98.391 E0.01125
G2 X118.391 Y110.408 E0.45015
G2 X118.691 Y110.708 E0.01125
G2 X130.708 Y98.691 E0.45015
G2 X131.009 Y98.991 E0.01125
G2 X118.991 Y111.009 E0.45015
G2 X119.291 Y111.309 E0.01125
G2 X131.309 Y99.291 E0.45015
G2 X131.609 Y99.592 E0.01125
G2 X119.592 Y111.609 E0.45015
G2 X119.892 Y111.910 E0.01125
G2 X131.910 Y99.892 E0.45015
G2 X132.210 Y100.192 E0.01125
G2 X120.192 Y112.210 E0.45015
G2 X120.493 Y112.510 E0.01125
G2 X132.510 Y100.493 E0.45015
G2 X132.811 Y100.793 E0.01125
G2 X120.793 Y112.811 E0.45015
G2 X121.093 Y113.111 E0.01125
G2 X133.111 Y101.093 E0.45015
G2 X133.411 Y101.394 E0.01125
G2 X121.394 Y113.411 E0.45015
G2 X121.694 Y113.712 E0.01125
G2 X133.712 Y101.694 E0.45015
G2 X134.012 Y101.994 E0.01125
G2 X121.994 Y114.012 E0.45015
G2 X122.295 Y114.312 E0.01125
G2 X134.312 Y102.295 E0.45015
G2 X134.613 Y102.595 E0.01125
G2 X122.595 Y114.613 E0.45015
G2 X122.895 Y114.913 E0.01125
G2 X134.913 Y102.895 E0.45015
G2 X135.213 Y103.196 E0.01125
G2 X123.196 Y115.213 E0.45015
G2 X123.496 Y115.514 E0.01125
G2 X135.514 Y103.496 E0.45015
G2 X135.814 Y103.796 E0.01125
G2 X123.796 Y115.814 E0.45015
G2 X124.097 Y116.114 E0.01125
G2 X136.114 Y104.097 E0.45015
G2 X136.415 Y104.397 E0.01125
G2 X124.397 Y116.415 E0.45015
G2 X124.697 Y116.715 E0.01125
G2 X136.715 Y104.697 E0.45015
G2 X137.015 Y104.998 E0.01125
G2 X124.865 Y117.148 E0.45513
; stop printing object cube-test.stl id:0 copy 0
;BEFORE_LAYER_CHANGE
G92 E0.0
;0.5


G1 F8640.000
G2 X127.192 Y114.821 E-0.76000
G1 E-0.04000 F2100.00000
G1 Z0.750 F10800.000
;AFTER_LAYER_CHANGE
;0.5
G1 X123.993 Y120.933
G1 Z0.500
G1 E0.80000 F2100.00000
G1 F3000.000
G2 X123.130 Y120.392 E0.02465
G2 X109.683 Y106.947 E0.45988
G2 X109.340 Y106.530 E0.01307
G2 X109.085 Y106.053 E0.01307
G2 X108.929 Y105.536 E0.01307
G2 X108.876 Y104.998 E0.01307
G2 X109.067 Y103.993 E0.02474
G2 X109.608 Y103.130 E0.02465
G2 X123.053 Y89.683 E0.45988
G2 X123.474 Y89.338 E0.01317
G2 X123.951 Y89.084 E0.01307
G2 X124.468 Y88.928 E0.01307
G2 X125.006 Y88.876 E0.01307
G2 X126.007 Y89.067 E0.02465
G2 X126.870 Y89.608 E0.02465
G2 X140.317 Y103.053 E0.45988
G2 X140.660 Y103.470 E0.01307
G2 X140.915 Y103.947 E0.01307
G2 X141.071 Y104.464 E0.01307
G2 X141.124 Y105.002 E0.01307
G2 X140.933 Y106.007 E0.02474
G2 X140.392 Y106.870 E0.02465
G2 X126.947 Y120.317 E0.45988
G2 X126.530 Y120.660 E0.01307
G2 X126.053 Y120.915 E0.01307
G2 X125.536 Y121.071 E0.01307
G2 X124.998 Y121.124 E0.01307
G2 X124.052 Y120.945 E0.02329
G1 X124.091 Y120.566 F10800.000
G1 F3000.000
G2 X123.319 Y120.051 E0.02245
G2 X109.894 Y106.623 E0.45922
G2 X109.418 Y105.871 E0.02152
G2 X109.253 Y105.001 E0.02143
G2 X109.419 Y104.126 E0.02152
G2 X109.893 Y103.377 E0.02143
G2 X123.319 Y89.949 E0.45924
G2 X124.090 Y89.434 E0.02242
G2 X125.003 Y89.253 E0.02252
G2 X125.874 Y89.419 E0.02143
G2 X126.623 Y89.893 E0.02143
G2 X140.051 Y103.319 E0.45924
G2 X140.566 Y104.090 E0.02242
G2 X140.747 Y104.999 E0.02242
G2 X140.566 Y105.909 E0.02242
G2 X140.051 Y106.681 E0.02245
G2 X126.623 Y120.106 E0.45922
G2 X125.871 Y120.582 E0.02152
G2 X125.001 Y120.747 E0.02143
G2 X124.150 Y120.578 E0.02097
; printing object cube-test.stl id:0 copy 0
G1 F8640.000
G2 X123.319 Y120.051 E-0.22720
G2 X121.688 Y118.419 E-0.53280
G1 E-0.04000 F2100.00000
G1 Z0.900 F10800.000
G1 X125.000 Y117.461
G1 Z0.500
G1 E0.80000 F2100.00000
M204 S800
G1 F2700.000
G2 X112.539 Y105.000 E0.45916
G2 X125.000 Y92.539 E0.45916
G2 X137.461 Y105.000 E0.45916
G2 X125.042 Y117.418 E0.45760
M204 S1000
G1 X125.000 Y118.052 F10800.000
M204 S800
G1 F1500.000
G2 X111.948 Y105.000 E0.48093
G2 X125.000 Y91.948 E0.48093
G2 X138.052 Y105.000 E0.48093
G2 X125.042 Y118.009 E0.47937
M204 S1000
G1 X124.800 Y117.705 F10800.000
G1 F8640.000
G2 X122.707 Y115.689 E-0.76000
G1 E-0.04000 F2100.00000
G1 Z0.900 F10800.000
G1 X112.852 Y104.865
G1 Z0.500
G1 E0.80000 F2100.00000
G1 F4800.000
G2 X125.002 Y117.015 E0.45513
G2 X125.303 Y116.715 E0.01125
G2 X113.285 Y104.697 E0.45015
G2 X113.585 Y104.397 E0.01125
G2 X125.603 Y116.415 E0.45015
G2 X125.903 Y116.114 E0.01125
G2 X113.886 Y104.097 E0.45015
G2 X114.186 Y103.796 E0.01125
G2 X126.204 Y115.814 E0.45015
G2 X126.504 Y115.514 E0.01125
G2 X114.486 Y103.496 E0.45015
G2 X114.787 Y103.196 E0.01125
G2 X126.804 Y115.213 E0.45015
G2 X127.105 Y114.913 E0.01125
G2 X115.087 Y102.895 E0.45015
G2 X115.387 Y102.595 E0.01125
G2 X127.405 Y114.613 E0.45015
G2 X127.705 Y114.312 E0.01125
G2 X115.688 Y102.295 E0.45015
G2 X115.988 Y101.994 E0.01125
G2 X128.006 Y114.012 E0.45015
G2 X128.306 Y113.712 E0.01125
G2 X116.288 Y101.694 E0.45015
G2 X116.589 Y101.394 E0.01125
G2 X128.606 Y113.411 E0.45015
G2 X128.907 Y113.111 E0.01125
G2 X116.889 Y101.093 E0.45015
G2 X117.189 Y100.793 E0.01125
G2 X129.207 Y112.811 E0.45015
G2 X129.507 Y112.510 E0.01125
G2 X117.490 Y100.493 E0.45015
G2 X117.790 Y100.192 E0.01125
G2 X129.808 Y112.210 E0.45015
G2 X130.108 Y111.910 E0.01125
G2 X118.090 Y99.892 E0.45015
G2 X118.391 Y99.592 E0.01125
G2 X130.408 Y111.609 E0.45015
G2 X130.708 Y111.309 E0.01125
G2 X118.691 Y99.292 E0.45015
G2 X118.991 Y98.991 E0.01125
G2 X131.009 Y111.009 E0.45015
G2 X131.309 Y110.709 E0.01125
G2 X119.291 Y98.691 E0.45015
G2 X119.592 Y98.391 E0.01125
G2 X131.609 Y110.408 E0.45015
G2 X131.910 Y110.108 E0.01125
G2 X119.892 Y98.090 E0.45015
G2 X120.192 Y97.790 E0.01125
G2 X132.210 Y109.808 E0.45015
G2 X132.510 Y109.507 E0.01125
G2 X120.493 Y97.490 E0.45015
G2 X120.793 Y97.189 E0.01125
G2 X132.811 Y109.207 E0.45015
G2 X133.111 Y108.907 E0.01125
G2 X121.093 Y96.889 E0.45015
G2 X121.394 Y96.589 E0.01125
G2 X133.411 Y108.606 E0.45015
G2 X133.712 Y108.306 E0.01125
G2 X121.694 Y96.288 E0.45015
G2 X121.994 Y95.988 E0.01125
G2 X134.012 Y108.006 E0.45015
G2 X134.312 Y107.705 E0.01125
G2 X122.295 Y95.688 E0.45015
G2 X122.595 Y95.387 E0.01125
G2 X134.613 Y107.405 E0.45015
G2 X134.913 Y107.105 E0.01125
G2 X122.895 Y95.087 E0.45015
G2 X123.196 Y94.787 E0.01125
G2 X135.213 Y106.804 E0.45015
G2 X135.514 Y106.504 E0.01125
