; generated by PrusaSlicer 2.2.0+ on 2021-02-24 at 16:45:37 UTC

; 

; external perimeters extrusion width = 0.45mm
; perimeters extrusion width = 0.45mm
; infill extrusion width = 0.45mm
; solid infill extrusion width = 0.45mm
; top infill extrusion width = 0.40mm
; first layer extrusion width = 0.42mm

M73 P0 R35
M73 Q0 S35
M201 X1000 Y1000 Z200 E5000 ; sets maximum accelerations, mm/sec^2
M203 X200 Y200 Z12 E120 ; sets maximum feedrates, mm/sec
M204 P1250 R1250 T1250 ; sets acceleration (P, T) and retract acceleration (R), mm/sec^2
M205 X8.00 Y8.00 Z0.40 E4.50 ; sets the jerk limits, mm/sec
M205 S0 T0 ; sets the minimum extruding and travel feed rate, mm/sec
M107
M862.3 P "MK3S" ; printer model check
M862.1 P0.4 ; nozzle diameter check
M115 U3.9.3 ; tell printer latest fw version
G90 ; use absolute coordinates
M83 ; extruder relative mode
M104 S215 ; set extruder temp
M140 S60 ; set bed temp
M190 S60 ; wait for bed temp
M109 S215 ; wait for extruder temp
G28 W ; home all without mesh bed level
G80 ; mesh bed leveling
G1 Y-3.0 F1000.0 ; go outside print area
G92 E0.0
G1 X60.0 E9.0 F1000.0 ; intro line
M73 Q0 S35
M73 P0 R35
G1 X100.0 E12.5 F1000.0 ; intro line
G92 E0.0
M221 S95

; Don't change E values below. Excessive value can damage the printer.
M907 E430 ; set extruder motor current
G21 ; set units to millimeters
G90 ; use absolute coordinates
M83 ; use relative distances for extrusion
M900 K0.05 ; Filament gcode LA 1.5
M900 K30 ; Filament gcode LA 1.0
;BEFORE_LAYER_CHANGE
G92 E0.0
;0.2


G1 E-0.80000 F2100.00000
G1 Z0.400 F10800.000
;AFTER_LAYER_CHANGE
;0.2
G1 X109.067 Y103.993
G1 Z0.200
G1 E0.80000 F2100.00000
M204 S1000
G1 F1200.000
G1 X111.10721315793104 Y103.13 E0.03195
G1 X122.57398577840945 Y89.683 E0.59621
G1 X119.22004303056131 Y89.338 E0.01707
G1 X125.0709436611338 Y89.084 E0.01694
G1 X123.3044243298715 Y88.928 E0.01694
G1 X122.48989331694496 Y88.876 E0.01694
G1 X130.17398061533243 Y89.067 E0.03195
G1 X122.87840626189035 Y89.608 E0.03195
G1 X136.77443914772303 Y103.053 E0.59621
G1 X139.2603260049366 Y103.47 E0.01694
G1 X138.46560311037334 Y103.947 E0.01694
G1 X145.8274231836515 Y104.464 E0.01694
G1 X145.70067429650913 Y105.002 E0.01694
G1 X136.6723344234996 Y106.007 E0.03208
G1 X143.68958705904095 Y106.87 E0.03195
G1 X129.49010343836133 Y120.317 E0.59621
G1 X127.36634003569392 Y120.66 E0.01694
G1 X129.05717347943897 Y120.915 E0.01694
G1 X124.60057077557191 Y121.071 E0.01694
G1 X123.71131679777565 Y121.124 E0.01694
G1 X125.0661491517661 Y120.933 E0.03208
G1 X126.48662178724933 Y120.392 E0.03195
G1 X113.8837892432555 Y106.947 E0.59621
G1 X109.04539113855395 Y106.53 E0.01694
G1 X110.83371108540175 Y106.053 E0.01694
G1 X113.43320698707258 Y105.536 E0.01694
G1 X107.9258835927126 Y104.998 E0.01694
G1 X105.7853365779925 Y104.052 E0.0302
G1 X109.419 Y104.126 F10800.000
G1 F1200.000
G1 X112.04915124124713 Y103.377 E0.02778
G1 X125.3547137226954 Y89.949 E0.59538
G1 X119.40070426308118 Y89.434 E0.02907
G1 X127.4611755058337 Y89.253 E0.02919
G1 X129.90739303812876 Y89.419 E0.02778
G1 X129.82262771619392 Y89.893 E0.02778
G1 X143.8667742726388 Y103.319 E0.59538
G1 X139.90231430480492 Y104.09 E0.02907
G1 X138.44636387847675 Y104.999 E0.02907
G1 X140.10047712266694 Y105.909 E0.02907
G1 X136.22490534913996 Y106.681 E0.02911
G1 X126.78692851878725 Y120.106 E0.59535
G1 X125.48673039371346 Y120.582 E0.0279
G1 X126.77902459171618 Y120.747 E0.02778
G1 X126.16974910982225 Y120.566 E0.02907
G1 X126.37451994478123 Y120.051 E0.02911
G1 X114.07814104227275 Y106.623 E0.59535
G1 X108.57198260499659 Y105.871 E0.0279
G1 X105.96339549645978 Y105.001 E0.02778
G1 X108.62366852504046 Y104.185 E0.02602
; printing object cube-test.stl id:0 copy 0
G1 F8640.000
G1 X109.893 Y103.377 E-0.21755
G1 X111.554 Y101.716 E-0.54245
G1 E-0.04000 F2100.00000
G1 Z0.600 F10800.000
G1 X112.743 Y105.000
G1 Z0.200
G1 E0.80000 F2100.00000
G1 F1200.000
G1 X121.61467024549297 Y92.743 E0.54348
G1 X133.43009465133903 Y105.0 E0.54348
G1 X124.6031079262392 Y117.257 E0.54348
G1 X116.64830054558612 Y105.042 E0.5416
G1 X112.210 Y105.000 F10800.000
G1 F1200.000
G1 X125.79954246909881 Y92.21 E0.56713
G1 X140.45795357000645 Y105.0 E0.56713
G1 X123.24757482865607 Y117.79 E0.56713
G1 X116.81968517991982 Y105.042 E0.56525
G1 X112.556 Y104.800 F10800.000
G1 F8640.000
G1 X114.572 Y102.707 E-0.76000
G1 E-0.04000 F2100.00000
G1 Z0.600 F10800.000
G1 X136.975 Y105.121
G1 Z0.200
G1 E0.80000 F2100.00000
G1 F1200.000
G1 X129.59098635671464 Y93.145 E0.5366
G1 X120.83708479271553 Y93.414 E0.01207
G1 X137.64925044130737 Y105.271 E0.53122
G1 X136.508013334187 Y105.54 E0.01207
G1 X129.34454159925318 Y93.683 E0.53122
G1 X123.1971745945403 Y93.953 E0.01207
G1 X139.94406510766257 Y105.81 E0.53122
G1 X135.28435599800804 Y106.079 E0.01207
G1 X124.92828818672102 Y94.222 E0.53122
G1 X123.83579778730426 Y94.492 E0.01207
G1 X131.6317462091165 Y106.348 E0.53122
G1 X132.374026550243 Y106.618 E0.01207
G1 X123.38354445898537 Y94.761 E0.53122
G1 X126.36356350961961 Y95.03 E0.01207
G1 X136.7015063314302 Y106.887 E0.53122
G1 X134.19080653839194 Y107.157 E0.01207
G1 X119.7299086434279 Y95.3 E0.53122
G1 X124.03527825771926 Y95.569 E0.01207
G1 X129.88902360594827 Y107.426 E0.53122
G1 X135.9037659357608 Y107.696 E0.01207
G1 X119.73624032841843 Y95.839 E0.53122
G1 X124.93323811450317 Y96.108 E0.01207
G1 X132.55333463925533 Y107.965 E0.53122
G1 X129.7770583336599 Y108.234 E0.01207
G1 X117.29295913573796 Y96.378 E0.53122
G1 X125.61088795701946 Y96.647 E0.01207
G1 X133.14393888031563 Y108.504 E0.53122
G1 X129.94079799074413 Y108.773 E0.01207
G1 X125.68025520870374 Y96.916 E0.53122
G1 X118.72894050870967 Y97.186 E0.01207
G1 X136.44675389861342 Y109.043 E0.53122
G1 X130.20954923294144 Y109.312 E0.01207
G1 X119.26163390205313 Y97.455 E0.53122
G1 X124.93014823804359 Y97.725 E0.01207
G1 X128.70838901003793 Y109.581 E0.53122
G1 X135.34712582055383 Y109.851 E0.01207
G1 X120.05556459952102 Y97.994 E0.53122
G1 X116.64521838378612 Y98.263 E0.01207
G1 X128.0463531040849 Y110.12 E0.53122
G1 X131.23505170347696 Y110.39 E0.01207
G1 X117.20505318173011 Y98.533 E0.53122
G1 X116.26061905084407 Y98.802 E0.01207
G1 X128.58859582262622 Y110.659 E0.53122
G1 X134.17044954409795 Y110.928 E0.01207
G1 X116.68658301018326 Y99.072 E0.53122
G1 X118.52761734302251 Y99.341 E0.01207
G1 X133.36323763399318 Y111.198 E0.53122
G1 X130.2545135382733 Y111.467 E0.01207
G1 X116.81222212114405 Y99.61 E0.53122
G1 X121.31847327544418 Y99.88 E0.01207
G1 X126.17715549641379 Y111.737 E0.53122
G1 X128.45728878355249 Y112.006 E0.01207
G1 X120.78821771408064 Y100.149 E0.53122
G1 X121.13724672786172 Y100.419 E0.01207
G1 X134.4239671370367 Y112.275 E0.53122
G1 X129.247002913017 Y112.545 E0.01207
G1 X121.83993104550939 Y100.688 E0.53122
G1 X117.89241765488266 Y100.957 E0.01207
G1 X130.96470755321312 Y112.814 E0.53122
G1 X129.11969448480244 Y113.084 E0.01207
G1 X117.1463062780172 Y101.227 E0.53122
G1 X113.30684695588604 Y101.496 E0.01207
G1 X133.16792293054723 Y113.353 E0.53122
G1 X129.03464260660564 Y113.623 E0.01207
G1 X117.77023666649232 Y101.766 E0.53122
G1 X119.30111296472377 Y102.035 E0.01207
G1 X129.1196346610796 Y113.892 E0.53122
G1 X127.3537549261256 Y114.161 E0.01207
G1 X113.25271859621174 Y102.305 E0.53122
G1 X116.08098732023822 Y102.574 E0.01207
G1 X131.74339702196855 Y114.431 E0.53122
G1 X124.68856446217914 Y114.7 E0.01207
G1 X120.13402761917922 Y102.843 E0.53122
G1 X115.2341590186029 Y103.113 E0.01207
G1 X128.62252393055022 Y114.97 E0.53122
G1 X125.70830569352958 Y115.239 E0.01207
G1 X119.52613864924187 Y103.382 E0.53122
G1 X114.30009318719311 Y103.652 E0.01207
G1 X121.57704635202708 Y115.508 E0.53122
G1 X125.06528715861519 Y115.778 E0.01207
G1 X118.37732829093352 Y103.921 E0.53122
G1 X114.64381473681051 Y104.19 E0.01207
G1 X121.39417819637197 Y116.047 E0.53122
G1 X125.14528511551312 Y116.317 E0.01207
G1 X113.16551769874282 Y104.46 E0.53122
G1 X118.04639930348536 Y104.729 E0.01207
G1 X122.64783617160829 Y116.586 E0.53122
G1 X125.41382777955965 Y116.855 E0.01207
G1 X111.89053803307601 Y104.879 E0.5366
M73 Q3 S34
; stop printing object cube-test.stl id:0 copy 0
M106 S255
;BEFORE_LAYER_CHANGE
G92 E0.0
;0.35


G1 F8640.000
G1 X115.352 Y107.206 E-0.76000
G1 E-0.04000 F2100.00000
G1 Z0.600 F10800.000
;AFTER_LAYER_CHANGE
;0.35
G1 X109.067 Y103.993
G1 Z0.350
G1 E0.80000 F2100.00000
M73 P3 R34
G1 F3000.000
G1 X109.39524452503026 Y103.13 E0.02465
G1 X121.33807878531813 Y89.683 E0.45988
G1 X119.27997762718003 Y89.338 E0.01317
G1 X121.25879238899869 Y89.084 E0.01307
G1 X122.56207466988012 Y88.928 E0.01307
G1 X123.51585437240817 Y88.876 E0.01307
G1 X125.76068927394319 Y89.067 E0.02465
G1 X130.83780615244714 Y89.608 E0.02465
G1 X139.96148277480216 Y103.053 E0.45988
G1 X141.63142851853559 Y103.47 E0.01307
G1 X136.28361986663307 Y103.947 E0.01307
G1 X144.43303180712013 Y104.464 E0.01307
G1 X141.33156321409086 Y105.002 E0.01307
G1 X144.24906086690956 Y106.007 E0.02474
G1 X138.50620000603084 Y106.87 E0.02465
G1 X131.2385977606806 Y120.317 E0.45988
G1 X128.56675421777624 Y120.66 E0.01307
G1 X121.51490844122372 Y120.915 E0.01307
G1 X123.47110623334542 Y121.071 E0.01307
G1 X120.05158563641234 Y121.124 E0.01307
G1 X120.39806112369095 Y120.933 E0.02474
G1 X124.10020088567533 Y120.392 E0.02465
G1 X112.60251783217254 Y106.947 E0.45988
G1 X113.37804565700486 Y106.53 E0.01307
G1 X111.06117048892342 Y106.053 E0.01307
G1 X107.97993018704565 Y105.536 E0.01307
G1 X111.18615377431715 Y104.998 E0.01307
G1 X109.51697782568691 Y104.052 E0.02329
G1 X109.419 Y104.126 F10800.000
G1 F3000.000
G1 X112.68373931511094 Y103.377 E0.02143
G1 X126.98517867820098 Y89.949 E0.45924
G1 X123.5192278427786 Y89.434 E0.02242
G1 X129.3059852698859 Y89.253 E0.02252
G1 X123.03170194512592 Y89.419 E0.02143
G1 X123.50748152649491 Y89.893 E0.02143
G1 X144.95129033949416 Y103.319 E0.45924
G1 X144.0958374494873 Y104.09 E0.02242
G1 X139.73120687395544 Y104.999 E0.02242
G1 X138.28965832354052 Y105.909 E0.02242
G1 X136.81470662487774 Y106.681 E0.02245
G1 X130.32623420395882 Y120.106 E0.45922
G1 X124.89342307278879 Y120.582 E0.02152
G1 X124.41272529146535 Y120.747 E0.02143
G1 X127.49618312908127 Y120.566 E0.02242
G1 X125.11725029916286 Y120.051 E0.02245
G1 X111.77492152725816 Y106.623 E0.45922
G1 X109.4460783471187 Y105.871 E0.02152
G1 X111.59725277967522 Y105.001 E0.02143
G1 X104.54596951261394 Y104.185 E0.02007
; printing object cube-test.stl id:0 copy 0
G1 F8640.000
G1 X109.893 Y103.377 E-0.21755
G1 X111.554 Y101.716 E-0.54245
G1 E-0.04000 F2100.00000
G1 Z0.750 F10800.000
G1 X112.539 Y105.000
G1 Z0.350
G1 E0.80000 F2100.00000
M204 S800
G1 F2700.000
G1 X121.48283139396112 Y92.539 E0.45916
G1 X134.83611965290956 Y105.0 E0.45916
G1 X126.86350499754339 Y117.461 E0.45916
G1 X111.96565109333507 Y105.042 E0.4576
M204 S1000
G1 X111.948 Y105.000 F10800.000
M204 S800
G1 F1500.000
G1 X122.32446768782359 Y91.948 E0.48093
G1 X141.29101130402844 Y105.0 E0.48093
G1 X126.8799179365503 Y118.052 E0.48093
G1 X112.19790301731308 Y105.042 E0.47937
M204 S1000
G1 X112.295 Y104.800 F10800.000
G1 F8640.000
G1 X114.311 Y102.707 E-0.76000
G1 E-0.04000 F2100.00000
G1 Z0.750 F10800.000
G1 X125.135 Y92.852
G1 Z0.350
G1 E0.80000 F2100.00000
G1 F4800.000
G1 X115.74935706742687 Y105.002 E0.45513
G1 X113.3916297255512 Y105.303 E0.01125
G1 X125.1015915919685 Y93.285 E0.45015
G1 X125.45955425278667 Y93.585 E0.01125
G1 X112.47918409376497 Y105.603 E0.45015
G1 X115.03938088955249 Y105.903 E0.01125
G1 X121.38800204216362 Y93.886 E0.45015
G1 X125.09704598038883 Y94.186 E0.01125
G1 X118.20236735360342 Y106.204 E0.45015
G1 X113.94443254442878 Y106.504 E0.01125
G1 X127.85092032118399 Y94.486 E0.45015
G1 X124.9066499023271 Y94.787 E0.01125
G1 X109.97283686506499 Y106.804 E0.45015
G1 X115.99802336923094 Y107.105 E0.01125
G1 X126.90999345574906 Y95.087 E0.45015
G1 X130.37399407093923 Y95.387 E0.01125
G1 X115.07501723848915 Y107.405 E0.45015
G1 X115.04920255506998 Y107.705 E0.01125
G1 X122.71876101502536 Y95.688 E0.45015
G1 X123.88340413891758 Y95.988 E0.01125
G1 X116.75678850635013 Y108.006 E0.45015
G1 X113.61024843483919 Y108.306 E0.01125
G1 X131.26957311240025 Y96.288 E0.45015
G1 X125.38866995329082 Y96.589 E0.01125
G1 X112.42292507055255 Y108.606 E0.45015
G1 X113.64075765490699 Y108.907 E0.01125
G1 X133.37816488561114 Y96.889 E0.45015
G1 X125.07623802081788 Y97.189 E0.01125
G1 X119.92417202079926 Y109.207 E0.45015
G1 X121.33332083246589 Y109.507 E0.01125
G1 X129.22127830789435 Y97.49 E0.45015
G1 X133.1315128776222 Y97.79 E0.01125
G1 X116.92518363070818 Y109.808 E0.45015
G1 X117.57733689493615 Y110.108 E0.01125
G1 X126.67196912026692 Y98.09 E0.45015
G1 X131.92245064763551 Y98.391 E0.01125
G1 X114.76272072504118 Y110.408 E0.45015
G1 X121.90660835969699 Y110.708 E0.01125
G1 X133.1753403779087 Y98.691 E0.45015
G1 X135.57695496335836 Y98.991 E0.01125
G1 X119.10832533939868 Y111.009 E0.45015
G1 X117.43382765405552 Y111.309 E0.01125
G1 X132.8201234681268 Y99.291 E0.45015
G1 X133.37946212439758 Y99.592 E0.01125
G1 X123.3376392696255 Y111.609 E0.45015
G1 X121.1387362083802 Y111.91 E0.01125
G1 X134.6635789084552 Y99.892 E0.45015
G1 X129.68579191370682 Y100.192 E0.01125
G1 X122.27491201002798 Y112.21 E0.45015
G1 X118.27426909066796 Y112.51 E0.01125
G1 X134.17688494411732 Y100.493 E0.45015
G1 X128.79686743853117 Y100.793 E0.01125
G1 X121.02135996190705 Y112.811 E0.45015
G1 X125.75431074489757 Y113.111 E0.01125
G1 X135.13747450712992 Y101.093 E0.45015
G1 X134.83946648969624 Y101.394 E0.01125
G1 X122.55333700795538 Y113.411 E0.45015
G1 X125.97742886097268 Y113.712 E0.01125
G1 X133.90677763483717 Y101.694 E0.45015
G1 X132.28953892165998 Y101.994 E0.01125
G1 X126.29102531990186 Y114.012 E0.45015
G1 X122.61126596199401 Y114.312 E0.01125
G1 X136.58684857924905 Y102.295 E0.45015
G1 X132.54898006048492 Y102.595 E0.01125
G1 X127.25747035770047 Y114.613 E0.45015
G1 X125.60544896459982 Y114.913 E0.01125
G1 X137.3286022928193 Y102.895 E0.45015
G1 X132.8521721387673 Y103.196 E0.01125
G1 X124.04100703940806 Y115.213 E0.45015
G1 X123.11740578460261 Y115.514 E0.01125
G1 X134.88031895486148 Y103.496 E0.45015
G1 X139.42851681627968 Y103.796 E0.01125
G1 X120.17402984331108 Y115.814 E0.45015
G1 X120.11674726759328 Y116.114 E0.01125
G1 X133.36739820498642 Y104.097 E0.45015
G1 X134.95166851701032 Y104.397 E0.01125
G1 X128.7498658856946 Y116.415 E0.45015
G1 X124.88693581733332 Y116.715 E0.01125
G1 X134.4692513731539 Y104.697 E0.45015
G1 X138.10602686625938 Y104.998 E0.01125
G1 X122.04778137275996 Y117.148 E0.45513
; stop printing object cube-test.stl id:0 copy 0
;BEFORE_LAYER_CHANGE
G92 E0.0
;0.5


G1 F8640.000
G1 X127.192 Y114.821 E-0.76000
G1 E-0.04000 F2100.00000
G1 Z0.750 F10800.000
;AFTER_LAYER_CHANGE
;0.5
G1 X123.993 Y120.933
G1 Z0.500
G1 E0.80000 F2100.00000
G1 F3000.000
G1 X124.2155300273454 Y120.392 E0.02465
G1 X106.56279014651693 Y106.947 E0.45988
G1 X105.08893217117061 Y106.53 E0.01307
G1 X111.2224096197984 Y106.053 E0.01307
G1 X110.579365068356 Y105.536 E0.01307
G1 X110.71925796939337 Y104.998 E0.01307
G1 X112.10961284934311 Y103.993 E0.02474
G1 X111.31302981277331 Y103.13 E0.02465
G1 X126.1336365076798 Y89.683 E0.45988
G1 X119.15367751132456 Y89.338 E0.01317
G1 X119.79210684822526 Y89.084 E0.01307
G1 X126.90607095543255 Y88.928 E0.01307
G1 X122.15937374004383 Y88.876 E0.01307
G1 X122.72052453245836 Y89.067 E0.02465
G1 X129.67119655593677 Y89.608 E0.02465
G1 X141.58709673525698 Y103.053 E0.45988
G1 X143.28042384188907 Y103.47 E0.01307
G1 X139.01211954653607 Y103.947 E0.01307
G1 X144.43758060589215 Y104.464 E0.01307
G1 X138.55283953703486 Y105.002 E0.01307
G1 X138.17163428504256 Y106.007 E0.02474
G1 X141.11540725562568 Y106.87 E0.02465
G1 X122.1758745294206 Y120.317 E0.45988
G1 X126.96373200196544 Y120.66 E0.01307
G1 X127.00489358360974 Y120.915 E0.01307
G1 X124.07241426981317 Y121.071 E0.01307
G1 X128.03996245579327 Y121.124 E0.01307
G1 X119.42302917586373 Y120.945 E0.02329
G1 X124.091 Y120.566 F10800.000
G1 F3000.000
G1 X122.0308960730336 Y120.051 E0.02245
G1 X112.36041947608754 Y106.623 E0.45922
G1 X113.54213379482675 Y105.871 E0.02152
