; generated by PrusaSlicer 2.2.0+ on 2021-02-24 at 16:45:37 UTC

; 

; external perimeters extrusion width = 0.45mm
; perimeters extrusion width = 0.45mm
; infill extrusion width = 0.45mm
; solid infill extrusion width = 0.45mm
; top infill extrusion width = 0.40mm
; first layer extrusion width = 0.42mm

M73 P0 R35
M73 Q0 S35
M201 X1000 Y1000 Z200 E5000 ; sets maximum accelerations, mm/sec^2
M203 X200 Y200 Z12 E120 ; sets maximum feedrates, mm/sec
M204 P1250 R1250 T1250 ; sets acceleration (P, T) and retract acceleration (R), mm/sec^2
M205 X8.00 Y8.00 Z0.40 E4.50 ; sets the jerk limits, mm/sec
M205 S0 T0 ; sets the minimum extruding and travel feed rate, mm/sec
M107
M862.3 P "MK3S" ; printer model check
M862.1 P0.4 ; nozzle diameter check
M115 U3.9.3 ; tell printer latest fw version
G90 ; use absolute coordinates
M83 ; extruder relative mode
M104 S215 ; set extruder temp
M140 S60 ; set bed temp
M190 S60 ; wait for bed temp
M109 S215 ; wait for extruder temp
G28 W ; home all without mesh bed level
G80 ; mesh bed leveling
G1 Y-3.0 F1000.0 ; go outside print area
G92 E0.0
G1 X60.0 E9.0 F1000.0 ; intro line
M73 Q0 S35
M73 P0 R35
G1 X100.0 E12.5 F1000.0 ; intro line
G92 E0.0
M221 S95

; Don't change E values below. Excessive value can damage the printer.
M907 E430 ; set extruder motor current
G21 ; set units to millimeters
G90 ; use absolute coordinates
M83 ; use relative distances for extrusion
M900 K0.05 ; Filament gcode LA 1.5
M900 K30 ; Filament gcode LA 1.0
;BEFORE_LAYER_CHANGE
G92 E0.0
;0.2


G1 E-0.80000 F2100.00000
G1 Z0.400 F10800.000
;AFTER_LAYER_CHANGE
;0.2
G1 X109.067 Y103.993
G1 Z0.200
G1 E0.80000 F2100.00000
M204 S1000
G1 F1200.000
G1 X109.60814871426258 Y103.13 E0.03195
G1 X123.0532630040695 Y89.683 E0.59621
G1 X123.47467452657051 Y89.338 E0.01707
G1 X123.95053592419607 Y89.084 E0.01694
G1 X124.46839500008392 Y88.928 E0.01694
G1 X125.00485131288863 Y88.876 E0.01694
G1 X126.00830278581483 Y89.067 E0.03195
G1 X126.86847143678398 Y89.608 E0.03195
G1 X140.31651723856478 Y103.053 E0.59621
G1 X140.6575933754704 Y103.47 E0.01694
G1 X140.91661988075919 Y103.947 E0.01694
G1 X141.07321225582052 Y104.464 E0.01694
G1 X141.12087686540164 Y105.002 E0.01694
G1 X140.9350812082958 Y106.007 E0.03208
G1 X140.39123198796295 Y106.87 E0.03195
G1 X126.94994451768956 Y120.317 E0.59621
G1 X126.5281868693143 Y120.66 E0.01694
G1 X126.0487527171699 Y120.915 E0.01694
G1 X125.53509175613692 Y121.071 E0.01694
G1 X124.998094049156 Y121.124 E0.01694
G1 X123.9944706665737 Y120.933 E0.03208
G1 X123.13064804088236 Y120.392 E0.03195
G1 X109.68479156793315 Y106.947 E0.59621
G1 X109.34228439955764 Y106.53 E0.01694
G1 X109.08361061005844 Y106.053 E0.01694
G1 X108.93463913917444 Y105.536 E0.01694
G1 X108.8797328684483 Y104.998 E0.01694
G1 X109.05566873666568 Y104.052 E0.0302
G1 X109.419 Y104.126 F10800.000
G1 F1200.000
G1 X109.888054512764 Y103.377 E0.02778
G1 X123.31398327154453 Y89.949 E0.59538
G1 X124.09127560174 Y89.434 E0.02907
G1 X125.01001697003441 Y89.253 E0.02919
G1 X125.88171886564696 Y89.419 E0.02778
G1 X126.6239409862358 Y89.893 E0.02778
G1 X140.0468304688331 Y103.319 E0.59538
G1 X140.56517450187857 Y104.09 E0.02907
G1 X140.7530853873119 Y104.999 E0.02907
G1 X140.56180654277955 Y105.909 E0.02907
G1 X140.05763359373057 Y106.681 E0.02911
G1 X126.62903378097067 Y120.106 E0.59535
G1 X125.8801239802058 Y120.582 E0.0279
G1 X125.00718760715866 Y120.747 E0.02778
G1 X124.09965708178912 Y120.566 E0.02907
G1 X123.31425904109615 Y120.051 E0.02911
G1 X109.89607895581057 Y106.623 E0.59535
G1 X109.42267835462691 Y105.871 E0.0279
G1 X109.25665967805678 Y105.001 E0.02778
G1 X109.3985595947256 Y104.185 E0.02602
; printing object cube-test.stl id:0 copy 0
G1 F8640.000
G1 X109.893 Y103.377 E-0.21755
G1 X111.554 Y101.716 E-0.54245
G1 E-0.04000 F2100.00000
G1 Z0.600 F10800.000
G1 X112.743 Y105.000
G1 Z0.200
G1 E0.80000 F2100.00000
G1 F1200.000
G1 X124.98914030073668 Y92.743 E0.54348
G1 X137.25927387517999 Y105.0 E0.54348
G1 X125.00255118906463 Y117.257 E0.54348
G1 X112.78832190808397 Y105.042 E0.5416
G1 X112.210 Y105.000 F10800.000
G1 F1200.000
G1 X125.00092236632653 Y92.21 E0.56713
G1 X137.8006438616629 Y105.0 E0.56713
G1 X125.00321578404534 Y117.79 E0.56713
G1 X112.23900893450946 Y105.042 E0.56525
G1 X112.556 Y104.800 F10800.000
G1 F8640.000
G1 X114.572 Y102.707 E-0.76000
G1 E-0.04000 F2100.00000
G1 Z0.600 F10800.000
G1 X136.975 Y105.121
G1 Z0.200
G1 E0.80000 F2100.00000
G1 F1200.000
G1 X125.01231979018671 Y93.145 E0.5366
G1 X124.74044722738323 Y93.414 E0.01207
G1 X136.57442128527384 Y105.271 E0.53122
G1 X136.32815295538904 Y105.54 E0.01207
G1 X124.45051626472448 Y93.683 E0.53122
G1 X124.19705560420418 Y93.953 E0.01207
G1 X136.05488149717533 Y105.81 E0.53122
G1 X135.76610516896756 Y106.079 E0.01207
G1 X123.90939859255317 Y94.222 E0.53122
G1 X123.6484293264088 Y94.492 E0.01207
G1 X135.49913049213373 Y106.348 E0.53122
G1 X135.23517591574708 Y106.618 E0.01207
G1 X123.39528258589776 Y94.761 E0.53122
G1 X123.11121206213268 Y95.03 E0.01207
G1 X134.98587717459975 Y106.887 E0.53122
G1 X134.6990567365419 Y107.157 E0.01207
G1 X122.8386717175529 Y95.3 E0.53122
G1 X122.59139804180708 Y95.569 E0.01207
G1 X134.43195235251682 Y107.426 E0.53122
G1 X134.17317836783687 Y107.696 E0.01207
G1 X122.31241163188248 Y95.839 E0.53122
G1 X122.0214684051339 Y96.108 E0.01207
G1 X133.90053400108835 Y107.965 E0.53122
G1 X133.6390139913206 Y108.234 E0.01207
G1 X121.75125218789682 Y96.378 E0.53122
G1 X121.47637817095766 Y96.647 E0.01207
G1 X133.33348816678935 Y108.504 E0.53122
G1 X133.09386673518523 Y108.773 E0.01207
G1 X121.2412178887222 Y96.916 E0.53122
G1 X120.96808323440261 Y97.186 E0.01207
G1 X132.79639437202036 Y109.043 E0.53122
G1 X132.5305048479146 Y109.312 E0.01207
G1 X120.70970219944243 Y97.455 E0.53122
G1 X120.44029166011201 Y97.725 E0.01207
G1 X132.28830423806025 Y109.581 E0.53122
G1 X132.02113880055714 Y109.851 E0.01207
G1 X120.13330801946579 Y97.994 E0.53122
G1 X119.863684733458 Y98.263 E0.01207
G1 X131.71902379151274 Y110.12 E0.53122
G1 X131.48777083613837 Y110.39 E0.01207
G1 X119.62442097036963 Y98.533 E0.53122
G1 X119.36319718299032 Y98.802 E0.01207
G1 X131.17791824274255 Y110.659 E0.53122
G1 X130.91334450340847 Y110.928 E0.01207
G1 X119.07619476565739 Y99.072 E0.53122
G1 X118.82477697707458 Y99.341 E0.01207
G1 X130.6844009553864 Y111.198 E0.53122
G1 X130.3667907787201 Y111.467 E0.01207
G1 X118.55366087739226 Y99.61 E0.53122
G1 X118.28143200067214 Y99.88 E0.01207
G1 X130.1080187357136 Y111.737 E0.53122
G1 X129.83127828517115 Y112.006 E0.01207
G1 X117.98214231379727 Y100.149 E0.53122
G1 X117.69782978859074 Y100.419 E0.01207
G1 X129.55987008357232 Y112.275 E0.53122
G1 X129.31731477486952 Y112.545 E0.01207
G1 X117.45854236524892 Y100.688 E0.53122
G1 X117.21321180288032 Y100.957 E0.01207
G1 X129.0195977546728 Y112.814 E0.53122
G1 X128.7702709142221 Y113.084 E0.01207
G1 X116.93396630753222 Y101.227 E0.53122
G1 X116.62477499964609 Y101.496 E0.01207
G1 X128.4751741879992 Y113.353 E0.53122
G1 X128.2131283647031 Y113.623 E0.01207
G1 X116.39234765392901 Y101.766 E0.53122
G1 X116.12656483852857 Y102.035 E0.01207
G1 X127.94046896926054 Y113.892 E0.53122
G1 X127.7186727397835 Y114.161 E0.01207
G1 X115.81567100329308 Y102.305 E0.53122
G1 X115.59997579634327 Y102.574 E0.01207
G1 X127.43076370308259 Y114.431 E0.53122
G1 X127.14786220550657 Y114.7 E0.01207
G1 X115.29173764481123 Y102.843 E0.53122
G1 X115.06016815590394 Y103.113 E0.01207
G1 X126.87299671169272 Y114.97 E0.53122
G1 X126.60462320385071 Y115.239 E0.01207
G1 X114.7284195579914 Y103.382 E0.53122
G1 X114.51085641924811 Y103.652 E0.01207
G1 X126.33402070287283 Y115.508 E0.53122
G1 X126.05869621101199 Y115.778 E0.01207
G1 X114.21730039354351 Y103.921 E0.53122
G1 X113.95459707739357 Y104.19 E0.01207
G1 X125.79039326634106 Y116.047 E0.53122
G1 X125.5489580497604 Y116.317 E0.01207
G1 X113.67638298034602 Y104.46 E0.53122
G1 X113.41412833388648 Y104.729 E0.01207
G1 X125.24454787605808 Y116.586 E0.53122
G1 X125.012712902483 Y116.855 E0.01207
G1 X113.00217248762358 Y104.879 E0.5366
M73 Q3 S34
; stop printing object cube-test.stl id:0 copy 0
M106 S255
;BEFORE_LAYER_CHANGE
G92 E0.0
;0.35


G1 F8640.000
G1 X115.352 Y107.206 E-0.76000
G1 E-0.04000 F2100.00000
G1 Z0.600 F10800.000
;AFTER_LAYER_CHANGE
;0.35
G1 X109.067 Y103.993
G1 Z0.350
G1 E0.80000 F2100.00000
M73 P3 R34
G1 F3000.000
G1 X109.57980722512114 Y103.13 E0.02465
G1 X123.0185486081159 Y89.683 E0.45988
G1 X123.46756882448008 Y89.338 E0.01317
G1 X123.92843939491392 Y89.084 E0.01307
G1 X124.48830980642086 Y88.928 E0.01307
G1 X124.98683662832623 Y88.876 E0.01307
G1 X126.04215231131059 Y89.067 E0.02465
G1 X126.90558279252696 Y89.608 E0.02465
G1 X140.29464157726642 Y103.053 E0.45988
G1 X140.65612810145834 Y103.47 E0.01307
G1 X140.94221815127563 Y103.947 E0.01307
G1 X141.07232178490034 Y104.464 E0.01307
G1 X141.08666416696113 Y105.002 E0.01307
G1 X140.96815450834245 Y106.007 E0.02474
G1 X140.40624282745932 Y106.87 E0.02465
G1 X126.95420741762642 Y120.317 E0.45988
G1 X126.56639500973712 Y120.66 E0.01307
G1 X126.0152477531386 Y120.915 E0.01307
G1 X125.55053460332104 Y121.071 E0.01307
G1 X124.99585749178189 Y121.124 E0.01307
G1 X123.96682834880303 Y120.933 E0.02474
G1 X123.13805171679223 Y120.392 E0.02465
G1 X109.6530003903962 Y106.947 E0.45988
G1 X109.3697802048625 Y106.53 E0.01307
G1 X109.0745802705804 Y106.053 E0.01307
G1 X108.89429987005545 Y105.536 E0.01307
G1 X108.9153830661452 Y104.998 E0.01307
G1 X109.08540132056997 Y104.052 E0.02329
G1 X109.419 Y104.126 F10800.000
G1 F3000.000
G1 X109.86475532769681 Y103.377 E0.02143
G1 X123.29328126373699 Y89.949 E0.45924
G1 X124.12010428509065 Y89.434 E0.02242
G1 X125.00206334745886 Y89.253 E0.02252
G1 X125.85395331015344 Y89.419 E0.02143
G1 X126.64711025213226 Y89.893 E0.02143
G1 X140.08300914572013 Y103.319 E0.45924
G1 X140.53024119004127 Y104.09 E0.02242
G1 X140.71931212948215 Y104.999 E0.02242
G1 X140.55462865902027 Y105.909 E0.02242
G1 X140.03290896317492 Y106.681 E0.02245
G1 X126.61299124037367 Y120.106 E0.45922
G1 X125.90665406732766 Y120.582 E0.02152
G1 X125.02208127469937 Y120.747 E0.02143
G1 X124.12231572448903 Y120.566 E0.02242
G1 X123.35829813125069 Y120.051 E0.02245
G1 X109.90546688767567 Y106.623 E0.45922
G1 X109.38237123592675 Y105.871 E0.02152
G1 X109.25396675584122 Y105.001 E0.02143
G1 X109.38368513522708 Y104.185 E0.02007
; printing object cube-test.stl id:0 copy 0
G1 F8640.000
G1 X109.893 Y103.377 E-0.21755
G1 X111.554 Y101.716 E-0.54245
G1 E-0.04000 F2100.00000
G1 Z0.750 F10800.000
G1 X112.539 Y105.000
G1 Z0.350
G1 E0.80000 F2100.00000
M204 S800
G1 F2700.000
G1 X125.00222831081298 Y92.539 E0.45916
G1 X137.47486797017052 Y105.0 E0.45916
G1 X124.97896154925833 Y117.461 E0.45916
G1 X112.62520326399702 Y105.042 E0.4576
M204 S1000
G1 X111.948 Y105.000 F10800.000
M204 S800
G1 F1500.000
G1 X124.98112315581868 Y91.948 E0.48093
G1 X138.0798605066629 Y105.0 E0.48093
G1 X124.99181284745232 Y118.052 E0.48093
G1 X111.98001468337277 Y105.042 E0.47937
M204 S1000
G1 X112.295 Y104.800 F10800.000
G1 F8640.000
G1 X114.311 Y102.707 E-0.76000
G1 E-0.04000 F2100.00000
G1 Z0.750 F10800.000
G1 X125.135 Y92.852
G1 Z0.350
G1 E0.80000 F2100.00000
G1 F4800.000
G1 X112.98982423786255 Y105.002 E0.45513
G1 X113.2949160976844 Y105.303 E0.01125
G1 X125.29093858327546 Y93.285 E0.45015
G1 X125.57717694907895 Y93.585 E0.01125
G1 X113.5948943011945 Y105.603 E0.45015
G1 X113.87766451741012 Y105.903 E0.01125
G1 X125.89482606248987 Y93.886 E0.45015
G1 X126.24713642793738 Y94.186 E0.01125
G1 X114.19920533179439 Y106.204 E0.45015
G1 X114.47491280274531 Y106.504 E0.01125
G1 X126.45363524717312 Y94.486 E0.45015
G1 X126.76292601261999 Y94.787 E0.01125
G1 X114.74925319767878 Y106.804 E0.45015
G1 X115.05564447207617 Y107.105 E0.01125
G1 X127.13779443983373 Y95.087 E0.45015
G1 X127.38852439690763 Y95.387 E0.01125
G1 X115.38033776374694 Y107.405 E0.45015
G1 X115.71775569383881 Y107.705 E0.01125
G1 X127.75425682051892 Y95.688 E0.45015
G1 X127.96036065312308 Y95.988 E0.01125
G1 X116.01656421566369 Y108.006 E0.45015
G1 X116.26871241671772 Y108.306 E0.01125
G1 X128.33140160090846 Y96.288 E0.45015
G1 X128.5824478892381 Y96.589 E0.01125
G1 X116.63750715049778 Y108.606 E0.45015
G1 X116.87660266970416 Y108.907 E0.01125
G1 X128.87948159765438 Y96.889 E0.45015
G1 X129.25991553416077 Y97.189 E0.01125
G1 X117.20775052602227 Y109.207 E0.45015
G1 X117.49477954538243 Y109.507 E0.01125
G1 X129.46354918384728 Y97.49 E0.45015
G1 X129.80258965413523 Y97.79 E0.01125
G1 X117.81000159303792 Y109.808 E0.45015
G1 X118.0838410216275 Y110.108 E0.01125
G1 X130.10943589868063 Y98.09 E0.45015
G1 X130.35525868496035 Y98.391 E0.01125
G1 X118.40044070650437 Y110.408 E0.45015
G1 X118.69686726807839 Y110.708 E0.01125
G1 X130.70628596144655 Y98.691 E0.45015
G1 X131.06453957113223 Y98.991 E0.01125
G1 X119.02909752122294 Y111.009 E0.45015
G1 X119.25029608765595 Y111.309 E0.01125
G1 X131.34964966158003 Y99.291 E0.45015
G1 X131.58938553630148 Y99.592 E0.01125
G1 X119.59334155589299 Y111.609 E0.45015
G1 X119.85389548892425 Y111.91 E0.01125
G1 X131.85003737079992 Y99.892 E0.45015
G1 X132.23716283228083 Y100.192 E0.01125
G1 X120.24444712300976 Y112.21 E0.45015
G1 X120.49636690832523 Y112.51 E0.01125
G1 X132.4826043928691 Y100.493 E0.45015
G1 X132.82199695608045 Y100.793 E0.01125
G1 X120.81116769333109 Y112.811 E0.45015
G1 X121.07891223143682 Y113.111 E0.01125
G1 X133.0820400189301 Y101.093 E0.45015
G1 X133.4597706458499 Y101.394 E0.01125
G1 X121.41220062399437 Y113.411 E0.45015
G1 X121.6365365319991 Y113.712 E0.01125
G1 X133.67790974754143 Y101.694 E0.45015
G1 X134.05954665497254 Y101.994 E0.01125
G1 X122.05461751332315 Y114.012 E0.45015
G1 X122.27679643314156 Y114.312 E0.01125
G1 X134.27159237144073 Y102.295 E0.45015
G1 X134.65089005244195 Y102.595 E0.01125
G1 X122.54176791487355 Y114.613 E0.45015
G1 X122.8367734481644 Y114.913 E0.01125
G1 X134.9765120372509 Y102.895 E0.45015
G1 X135.17888554086812 Y103.196 E0.01125
G1 X123.1903125921567 Y115.213 E0.45015
G1 X123.49791579607088 Y115.514 E0.01125
G1 X135.56106833862893 Y103.496 E0.45015
G1 X135.85978748972278 Y103.796 E0.01125
G1 X123.76874493239869 Y115.814 E0.45015
G1 X124.08579796268405 Y116.114 E0.01125
G1 X136.15004600791082 Y104.097 E0.45015
G1 X136.4146527338922 Y104.397 E0.01125
G1 X124.36683167490656 Y116.415 E0.45015
G1 X124.69916800446238 Y116.715 E0.01125
G1 X136.75819243065072 Y104.697 E0.45015
G1 X137.0511730728387 Y104.998 E0.01125
G1 X124.83023699968899 Y117.148 E0.45513
; stop printing object cube-test.stl id:0 copy 0
;BEFORE_LAYER_CHANGE
G92 E0.0
;0.5


G1 F8640.000
G1 X127.192 Y114.821 E-0.76000
G1 E-0.04000 F2100.00000
G1 Z0.750 F10800.000
;AFTER_LAYER_CHANGE
;0.5
G1 X123.993 Y120.933
G1 Z0.500
G1 E0.80000 F2100.00000
G1 F3000.000
G1 X123.14911397139589 Y120.392 E0.02465
G1 X109.61590876938855 Y106.947 E0.45988
G1 X109.35252544988815 Y106.53 E0.01307
G1 X109.09633107710032 Y106.053 E0.01307
G1 X108.87339222501402 Y105.536 E0.01307
G1 X108.93021129162443 Y104.998 E0.01307
G1 X109.08058367097169 Y103.993 E0.02474
G1 X109.64600296765241 Y103.13 E0.02465
G1 X123.11523431963938 Y89.683 E0.45988
G1 X123.49765388688442 Y89.338 E0.01317
G1 X123.95849482567742 Y89.084 E0.01307
G1 X124.48733012112501 Y88.928 E0.01307
G1 X124.96330355670179 Y88.876 E0.01307
G1 X125.9633561935174 Y89.067 E0.02465
G1 X126.93780840619745 Y89.608 E0.02465
G1 X140.26760893734985 Y103.053 E0.45988
G1 X140.6874778948945 Y103.47 E0.01307
G1 X140.9021850638814 Y103.947 E0.01307
G1 X141.0070775353128 Y104.464 E0.01307
G1 X141.14625020523056 Y105.002 E0.01307
G1 X140.92886988502744 Y106.007 E0.02474
G1 X140.33353423393413 Y106.87 E0.02465
G1 X126.89974988554107 Y120.317 E0.45988
G1 X126.54733843281645 Y120.66 E0.01307
G1 X125.98163952475886 Y120.915 E0.01307
G1 X125.46569884642088 Y121.071 E0.01307
G1 X124.92385722187588 Y121.124 E0.01307
G1 X123.98985524155907 Y120.945 E0.02329
G1 X124.091 Y120.566 F10800.000
G1 F3000.000
G1 X123.26675106852079 Y120.051 E0.02245
G1 X109.96449745787424 Y106.623 E0.45922
G1 X109.46142035321189 Y105.871 E0.02152
